X:94
T:Whisky Johnny (a)
M:C|
L:1/4
Q:1/4=120
K:G
D|\
GB BD|GB B2|G  B3 |G B2 d|
cc AA|FA D2|FA c>c|B G2 ||
